X: 1
T:Last Night's Fun
R:reel
D:Noel Hill: The Irish Concertina
Z:I'm not sure of exactly what grace notes are used, since they are so short.
M:C|
K:D
AD{B}FD A2dB|ADFD {c}EDB,B|AD{B}FD A2Bd|1 {g}edfe dBBd:|2 {g}edfe dBAB||
d2 (3[fA]af a2 (3faf|de[fA]d edfe|d2 (3faf af[dA]f|egfe dBAB|
[dD2]{f}ddf a2 (3[fA]af|de[fA]d [e2E2]ef|a2bf afeg|{a}fd{g}ed BddB||
